images/launch.svg

<?xml version="1.0" encoding="utf-8"?>
<!-- Generator: Adobe Illustrator 16.0.0, SVG Export Plug-In . SVG Version: 6.00 Build 0)  -->
<!DOCTYPE svg PUBLIC "-//W3C//DTD SVG 1.1//EN" "http://www.w3.org/Graphics/SVG/1.1/DTD/svg11.dtd">
<svg version="1.1" xmlns="http://www.w3.org/2000/svg" xmlns:xlink="http://www.w3.org/1999/xlink" x="0px" y="0px" width="108px"
	 height="108px" viewBox="0 0 108 108" enable-background="new 0 0 108 108" xml:space="preserve">
<g id="launch">
	<g>
		<path id="base_24_" fill-rule="evenodd" clip-rule="evenodd" fill="#FFFFFF" d="M54,0c29.823,0,54,24.177,54,54
			c0,29.824-24.177,54-54,54S0,83.824,0,54C0,24.177,24.177,0,54,0z"/>
		<path fill-rule="evenodd" clip-rule="evenodd" fill="#FFFFFF" d="M54,108c-14.888,0-28.367-6.026-38.137-15.771
			c1.812-2.551,4.779-4.219,8.143-4.219c5.131,0,9.354,3.874,9.924,8.86c0.023-0.283,0.07-0.561,0.07-0.85
			c0-4.104-2.469-7.628-5.997-9.173c2.739-2.962,6.647-4.827,11-4.827c7.898,0,14.356,6.108,14.941,13.857
			c0.017-0.287,0.058-0.567,0.058-0.858c0-4.248-1.773-8.076-4.612-10.806l2.595-22.221h4l1.977,16.928
			c-1.821,1.813-2.949,4.324-2.949,7.1c0,0.337,0.018,0.671,0.051,1c0.501-5.06,4.761-9.011,9.943-9.011
			c4.489,0,8.287,2.965,9.549,7.047c-5.587,2.183-9.551,7.604-9.551,13.963c0,0.358,0.022,0.711,0.047,1.062
			c0.486-7.845,6.984-14.062,14.952-14.062c4.995,0,9.408,2.452,12.134,6.207C82.368,101.974,68.889,108,54,108z"/>
		<path fill-rule="evenodd" clip-rule="evenodd" fill="#FFFFFF" d="M67.961,54.638c-0.188,1.36-1.049,1.897-2.186,0.76
			c-0.728-0.727-2.774-2.829-2.774-2.829c-0.964-0.964-2.157-0.702-3.562,0.703C57.059,55.652,57,58.008,57,58.008
			c0,0.553-0.447,1-1,1l-4.011,0.004c-0.552,0-1-0.449-1-1c0,0,0.255-2.355-2.126-4.735c-1.404-1.405-2.785-1.667-3.75-0.703
			c0,0-2.047,2.102-2.774,2.829c-1.138,1.139-1.998,0.6-2.186-0.76c0,0-0.687-7.289,0.898-10.156
			c0.646-1.17,2.399-1.861,3.563-1.237C40.068,28.944,45.815,14.216,54,6.005c7.605,7.763,14.14,22.415,9.371,37.203
			c1.152-0.544,2.718,0.134,3.349,1.274C68.304,47.35,67.961,54.638,67.961,54.638z M56.809,20.17c-1.562-1.562-4.095-1.562-5.656,0
			c-1.562,1.562-1.562,4.095,0,5.657c1.562,1.562,4.095,1.562,5.656,0C58.371,24.265,58.371,21.732,56.809,20.17z"/>
	</g>
	<g>
		<defs>
			<filter id="Adobe_OpacityMaskFilter" filterUnits="userSpaceOnUse" x="0" y="0" width="108" height="108">
				<feColorMatrix  type="matrix" values="1 0 0 0 0  0 1 0 0 0  0 0 1 0 0  0 0 0 1 0"/>
			</filter>
		</defs>
		<mask maskUnits="userSpaceOnUse" x="0" y="0" width="108" height="108" id="base_11_">
		</mask>
		<path id="base_16_" mask="url(#base_11_)" fill-rule="evenodd" clip-rule="evenodd" fill="#FFFFFF" d="M54,0
			c29.823,0,54,24.177,54,54c0,29.824-24.177,54-54,54S0,83.824,0,54C0,24.177,24.177,0,54,0z"/>
		<path fill-rule="evenodd" clip-rule="evenodd" fill="#CDD1D4" d="M54,108c-14.888,0-28.367-6.026-38.137-15.771
			c1.812-2.551,4.779-4.219,8.143-4.219c5.131,0,9.354,3.874,9.924,8.86c0.023-0.283,0.07-0.561,0.07-0.85
			c0-4.104-2.469-7.628-5.997-9.173c2.739-2.962,6.647-4.827,11-4.827c7.898,0,14.356,6.108,14.941,13.857
			c0.017-0.287,0.058-0.567,0.058-0.858c0-4.248-1.773-8.076-4.612-10.806l2.595-22.221h4l1.977,16.928
			c-1.821,1.813-2.949,4.324-2.949,7.1c0,0.337,0.018,0.671,0.051,1c0.501-5.06,4.761-9.011,9.943-9.011
			c4.489,0,8.287,2.965,9.549,7.047c-5.587,2.183-9.551,7.604-9.551,13.963c0,0.358,0.022,0.711,0.047,1.062
			c0.486-7.845,6.984-14.062,14.952-14.062c4.995,0,9.408,2.452,12.134,6.207C82.368,101.974,68.889,108,54,108z"/>
		<path fill-rule="evenodd" clip-rule="evenodd" fill="#434A50" d="M67.961,54.638c-0.188,1.36-1.049,1.897-2.186,0.76
			c-0.728-0.727-2.774-2.829-2.774-2.829c-0.964-0.964-2.157-0.702-3.562,0.703C57.059,55.652,57,58.008,57,58.008
			c0,0.553-0.447,1-1,1l-4.011,0.004c-0.552,0-1-0.449-1-1c0,0,0.255-2.355-2.126-4.735c-1.404-1.405-2.785-1.667-3.75-0.703
			c0,0-2.047,2.102-2.774,2.829c-1.138,1.139-1.998,0.6-2.186-0.76c0,0-0.687-7.289,0.898-10.156
			c0.646-1.17,2.399-1.861,3.563-1.237C40.068,28.944,45.815,14.216,54,6.005c7.605,7.763,14.14,22.415,9.371,37.203
			c1.152-0.544,2.718,0.134,3.349,1.274C68.304,47.35,67.961,54.638,67.961,54.638z M56.809,20.17c-1.562-1.562-4.095-1.562-5.656,0
			c-1.562,1.562-1.562,4.095,0,5.657c1.562,1.562,4.095,1.562,5.656,0C58.371,24.265,58.371,21.732,56.809,20.17z"/>
	</g>
</g>
</svg>

<svg xmlns="http://www.w3.org/2000/svg" width="108" height="108" viewBox="0 0 108 108">
  <g fill="none" fill-rule="evenodd">
    <g fill="#FFFFFF">
      <path d="M54,0 C83.823,0 108,24.177 108,54 C108,83.824 83.823,108 54,108 C24.177,108 0,83.824 0,54 C0,24.177 24.177,0 54,0 Z"/>
      <path d="M54 108C39.112 108 25.633 101.974 15.863 92.229 17.675 89.678 20.642 88.01 24.006 88.01 29.137 88.01 33.36 91.884 33.93 96.87 33.953 96.587 34 96.309 34 96.02 34 91.916 31.531 88.392 28.003 86.847 30.742 83.885 34.65 82.02 39.003 82.02 46.901 82.02 53.359 88.128 53.944 95.877 53.961 95.59 54.002 95.31 54.002 95.019 54.002 90.771 52.229 86.943 49.39 84.213L51.985 61.992 55.985 61.992 57.962 78.92C56.141 80.733 55.013 83.244 55.013 86.02 55.013 86.357 55.031 86.691 55.064 87.02 55.565 81.96 59.825 78.009 65.007 78.009 69.496 78.009 73.294 80.974 74.556 85.056 68.969 87.239 65.005 92.66 65.005 99.019 65.005 99.377 65.027 99.73 65.052 100.081 65.538 92.236 72.036 86.019 80.004 86.019 84.999 86.019 89.412 88.471 92.138 92.226 82.368 101.974 68.889 108 54 108zM67.961 54.638C67.773 55.998 66.912 56.535 65.775 55.398 65.047 54.671 63.001 52.569 63.001 52.569 62.037 51.605 60.844 51.867 59.439 53.272 57.059 55.652 57 58.008 57 58.008 57 58.561 56.553 59.008 56 59.008L51.989 59.012C51.437 59.012 50.989 58.563 50.989 58.012 50.989 58.012 51.244 55.657 48.863 53.277 47.459 51.872 46.078 51.61 45.113 52.574 45.113 52.574 43.066 54.676 42.339 55.403 41.201 56.542 40.341 56.003 40.153 54.643 40.153 54.643 39.466 47.354 41.051 44.487 41.697 43.317 43.45 42.626 44.614 43.25 40.068 28.944 45.815 14.216 54 6.005 61.605 13.768 68.14 28.42 63.371 43.208 64.523 42.664 66.089 43.342 66.72 44.482 68.304 47.35 67.961 54.638 67.961 54.638zM56.809 20.17C55.247 18.608 52.714 18.608 51.153 20.17 49.591 21.732 49.591 24.265 51.153 25.827 52.715 27.389 55.248 27.389 56.809 25.827 58.371 24.265 58.371 21.732 56.809 20.17z"/>
    </g>
    <path fill="#CDD1D4" d="M54,0 C83.823,0 108,24.177 108,54 C108,83.824 83.823,108 54,108 C24.177,108 0,83.824 0,54 C0,24.177 24.177,0 54,0 Z"/>
    <path fill="#FFFFFF" d="M54,108 C39.112,108 25.633,101.974 15.863,92.229 C17.675,89.678 20.642,88.01 24.006,88.01 C29.137,88.01 33.36,91.884 33.93,96.87 C33.953,96.587 34,96.309 34,96.02 C34,91.916 31.531,88.392 28.003,86.847 C30.742,83.885 34.65,82.02 39.003,82.02 C46.901,82.02 53.359,88.128 53.944,95.877 C53.961,95.59 54.002,95.31 54.002,95.019 C54.002,90.771 52.229,86.943 49.39,84.213 L51.985,61.992 L55.985,61.992 L57.962,78.92 C56.141,80.733 55.013,83.244 55.013,86.02 C55.013,86.357 55.031,86.691 55.064,87.02 C55.565,81.96 59.825,78.009 65.007,78.009 C69.496,78.009 73.294,80.974 74.556,85.056 C68.969,87.239 65.005,92.66 65.005,99.019 C65.005,99.377 65.027,99.73 65.052,100.081 C65.538,92.236 72.036,86.019 80.004,86.019 C84.999,86.019 89.412,88.471 92.138,92.226 C82.368,101.974 68.889,108 54,108 Z"/>
    <path fill="#434A50" d="M67.961,54.638 C67.773,55.998 66.912,56.535 65.775,55.398 C65.047,54.671 63.001,52.569 63.001,52.569 C62.037,51.605 60.844,51.867 59.439,53.272 C57.059,55.652 57,58.008 57,58.008 C57,58.561 56.553,59.008 56,59.008 L51.989,59.012 C51.437,59.012 50.989,58.563 50.989,58.012 C50.989,58.012 51.244,55.657 48.863,53.277 C47.459,51.872 46.078,51.61 45.113,52.574 C45.113,52.574 43.066,54.676 42.339,55.403 C41.201,56.542 40.341,56.003 40.153,54.643 C40.153,54.643 39.466,47.354 41.051,44.487 C41.697,43.317 43.45,42.626 44.614,43.25 C40.068,28.944 45.815,14.216 54,6.005 C61.605,13.768 68.14,28.42 63.371,43.208 C64.523,42.664 66.089,43.342 66.72,44.482 C68.304,47.35 67.961,54.638 67.961,54.638 Z M56.809,20.17 C55.247,18.608 52.714,18.608 51.153,20.17 C49.591,21.732 49.591,24.265 51.153,25.827 C52.715,27.389 55.248,27.389 56.809,25.827 C58.371,24.265 58.371,21.732 56.809,20.17 Z"/>
  </g>
</svg>
